X:1
T:Der Ere Bedrøvelige Dage Og Aar
T:Der Ere Bedrøvelige Dage Og Aar
T:Nedtegnet med siffernoter av Ole Andersen Mærlie (1873)
L:1/8
Q:1/4=70
M:2/2
K:F
V:1 treble nm="Stemme" snm="St."
V:1
 A2 |"Dm" (D2 E2) F2"Gm" G2 |"Dm" A3 B A2"Gm" G2 |"F" c4 d2 A2 |"Am" c4 z2"Dm" A2 |"Gm" B4 A2 G2 | %6
w: Der|er- * e be-|drø- ve- li- ge|Da- ge og|Aar. I|dis- se be-|
"F" A4 G2 F2 |"A7" E4"Dm" !fermata!D2 A2 | (D2 E2) F2"Gm" G2 |"Dm" (A3 B) A2"Gm" G2 |"F" c4 d2 A2 | %11
w: kri- ge- de|Ri- ger. Der|A- * de- len|pla- * ges og|Bor- ger- ne|
"Am" c6"Dm" A2 |"Gm" B4 A2 G2 |"Am" A4 C2 D2 |"Dm" (F6 G2) |"Gm" B6 A2 |"G7" G4 F2 D2 |"C" C6 E2 | %18
w: gaar. Og|ban- ge om-|kring seg de|kri- *|ger. Ak,|jam- mer, ak,|Ve, thi|
"Dm" F4 A2 G2 |"Am" c6 A2 |"Gm" B4 A2 G2 |"Dm" A4 G2 F2 |"A7" E4"Dm" !fermata!D2 |] %23
w: man- ge maa|se sin|Vel- stand i|Rø- gen op-|sti- ge.|

